X:1
T:Alankaar 6 — Sextuples
C:Exercise
M:none
L:1/4
Q:1/4=90
K:C
% Each scale degree repeated 6× ascending then descending.
CCCCCC DDDDDD | EEEEEE FFFFFF | GGGGGG AAAAAA | BBBBBB cccccc | cccccc BBBBBB | AAAAAA GGGGGG | FFFFFF EEEEEE | DDDDDD CCCCCC |
